_includes/icons/ios-gem.svg

<svg fill="#666" height="50" viewBox="0 0 50 50" width="50" xmlns="http://www.w3.org/2000/svg"><path d="m27.4375 2c-.171875.03125-.335937.105469-.46875.21875l-9.1875 3.375c-.125.039063-.242187.101563-.34375.1875l-9.0625 8.46875c-.074219.0625-.136719.136719-.1875.21875l-5.9375 10.1875c-.035156.050781-.066406.101563-.09375.15625l-.03125.0625c-.011719.011719-.019531.019531-.03125.03125v.0625c-.011719.019531-.023437.042969-.03125.0625-.011719.011719-.019531.019531-.03125.03125v.03125c-.011719.019531-.023437.042969-.03125.0625v.03125.0625.03125.0625.03125c-.007812.0625-.007812.125 0 .1875v12.375c-.003906.042969-.003906.082031 0 .125v.03125c-.003906.09375.007813.191406.03125.28125.203125 4.355469 1.980469 6.90625 4.125 8.15625 2.039063 1.191406 4.226563 1.304688 5.59375 1.34375.105469.003906.25-.003906.34375 0h.09375c.054688-.007812.105469-.015625.15625-.03125h.03125l32.03125-2.1875c.074219.007813.144531.007813.21875 0 .109375-.015625.214844-.046875.3125-.09375.066406-.035156.128906-.078125.1875-.125h.03125c.304688-.234375.453125-.621094.375-1l2.375-31.25c.003906-.019531-.003906-.042969 0-.0625l.09375-1.1875c.015625-.136719.007813-.273437-.03125-.40625 0-1.015625-.09375-2.023437-.34375-3-.769531-2.992187-3.085937-5.574219-7.40625-6.34375-.0625-.015625-.125-.027344-.1875-.03125-.019531 0-.042969 0-.0625 0l-12.21875-.15625c-.074219-.007812-.144531-.007812-.21875 0-.03125 0-.0625 0-.09375 0zm3.53125 2.03125 5.21875.0625-2.875 1.59375zm-3.375.09375 4.5625 3.21875-3.25 10.34375-12.28125 11.4375-10.03125 2.25-2.46875-5.9375 5.71875-9.84375 8.8125-8.1875zm12.5.09375c3.523438.699219 4.992188 2.484375 5.59375 4.8125.503906 1.957031.203125 4.300781-.34375 6.46875l-10.34375-8.46875zm-6.25 4.4375 9.4375 7.75-12.125.8125zm10.625 9.65625c-2.089844 5.648438-5.730469 10.449219-9.875 14.96875l-3.5625-14.09375zm-15.25 1.8125 3.46875 13.84375-13.625-4.40625zm16 1.78125-1.5625 20.625-8.09375-7.21875c3.773438-4.039062 7.261719-8.378906 9.65625-13.40625zm-41.21875 8.5.90625 2.09375-.90625 1.65625zm13.84375.875 14.21875 4.5625c-5.300781 4.769531-11.144531 8.535156-18.5 9.65625zm-2.125.09375-3.78125 12.5625-4.5625-10.6875zm-9.84375 3.46875 4.65625 10.90625c-1.101562-.109375-2.296875-.339844-3.375-.96875-1.605469-.9375-2.960937-2.664062-3.125-6.5625zm28.21875 1.875 8.03125 7.125-20.125 1.34375c4.539063-2.078125 8.464844-5.128906 12.09375-8.46875z"/></svg>

<svg xmlns="http://www.w3.org/2000/svg" viewBox="0 0 50 50" width="50" height="50" fill="#666"><path d="M 27.4375 2 C 27.265625 2.03125 27.101563 2.105469 26.96875 2.21875 L 17.78125 5.59375 C 17.65625 5.632813 17.539063 5.695313 17.4375 5.78125 L 8.375 14.25 C 8.300781 14.3125 8.238281 14.386719 8.1875 14.46875 L 2.25 24.65625 C 2.214844 24.707031 2.183594 24.757813 2.15625 24.8125 L 2.125 24.875 C 2.113281 24.886719 2.105469 24.894531 2.09375 24.90625 C 2.09375 24.925781 2.09375 24.949219 2.09375 24.96875 C 2.082031 24.988281 2.070313 25.011719 2.0625 25.03125 C 2.050781 25.042969 2.042969 25.050781 2.03125 25.0625 C 2.03125 25.074219 2.03125 25.082031 2.03125 25.09375 C 2.019531 25.113281 2.007813 25.136719 2 25.15625 C 2 25.167969 2 25.175781 2 25.1875 C 2 25.207031 2 25.230469 2 25.25 C 2 25.261719 2 25.269531 2 25.28125 C 2 25.300781 2 25.324219 2 25.34375 C 2 25.355469 2 25.363281 2 25.375 C 1.992188 25.4375 1.992188 25.5 2 25.5625 L 2 37.9375 C 1.996094 37.980469 1.996094 38.019531 2 38.0625 L 2 38.09375 C 1.996094 38.1875 2.007813 38.285156 2.03125 38.375 C 2.234375 42.730469 4.011719 45.28125 6.15625 46.53125 C 8.195313 47.722656 10.382813 47.835938 11.75 47.875 C 11.855469 47.878906 12 47.871094 12.09375 47.875 L 12.1875 47.875 C 12.242188 47.867188 12.292969 47.859375 12.34375 47.84375 L 12.375 47.84375 L 44.40625 45.65625 C 44.480469 45.664063 44.550781 45.664063 44.625 45.65625 C 44.734375 45.640625 44.839844 45.609375 44.9375 45.5625 C 45.003906 45.527344 45.066406 45.484375 45.125 45.4375 C 45.136719 45.4375 45.144531 45.4375 45.15625 45.4375 C 45.460938 45.203125 45.609375 44.816406 45.53125 44.4375 L 47.90625 13.1875 C 47.910156 13.167969 47.902344 13.144531 47.90625 13.125 L 48 11.9375 C 48.015625 11.800781 48.007813 11.664063 47.96875 11.53125 C 47.96875 10.515625 47.875 9.507813 47.625 8.53125 C 46.855469 5.539063 44.539063 2.957031 40.21875 2.1875 C 40.15625 2.171875 40.09375 2.160156 40.03125 2.15625 C 40.011719 2.15625 39.988281 2.15625 39.96875 2.15625 L 27.75 2 C 27.675781 1.992188 27.605469 1.992188 27.53125 2 C 27.5 2 27.46875 2 27.4375 2 Z M 30.96875 4.03125 L 36.1875 4.09375 L 33.3125 5.6875 Z M 27.59375 4.125 L 32.15625 7.34375 L 28.90625 17.6875 L 16.625 29.125 L 6.59375 31.375 L 4.125 25.4375 L 9.84375 15.59375 L 18.65625 7.40625 Z M 40.09375 4.21875 C 43.617188 4.917969 45.085938 6.703125 45.6875 9.03125 C 46.191406 10.988281 45.890625 13.332031 45.34375 15.5 L 35 7.03125 Z M 33.84375 8.65625 L 43.28125 16.40625 L 31.15625 17.21875 Z M 44.46875 18.3125 C 42.378906 23.960938 38.738281 28.761719 34.59375 33.28125 L 31.03125 19.1875 Z M 29.21875 20.125 L 32.6875 33.96875 L 19.0625 29.5625 Z M 45.21875 21.90625 L 43.65625 42.53125 L 35.5625 35.3125 C 39.335938 31.273438 42.824219 26.933594 45.21875 21.90625 Z M 4 30.40625 L 4.90625 32.5 L 4 34.15625 Z M 17.84375 31.28125 L 32.0625 35.84375 C 26.761719 40.613281 20.917969 44.378906 13.5625 45.5 Z M 15.71875 31.375 L 11.9375 43.9375 L 7.375 33.25 Z M 5.875 34.84375 L 10.53125 45.75 C 9.429688 45.640625 8.234375 45.410156 7.15625 44.78125 C 5.550781 43.84375 4.195313 42.117188 4.03125 38.21875 Z M 34.09375 36.71875 L 42.125 43.84375 L 22 45.1875 C 26.539063 43.109375 30.464844 40.058594 34.09375 36.71875 Z"/></svg>
